svgs/icons/sm/trips.svg

<svg xmlns="http://www.w3.org/2000/svg" viewBox="0 0 16 16"><path d="M11 4c0-1.1-.9-2-2-2h-2c-1.1 0-2 .9-2 2v2h-1v8h8v-8h-1v-2zm-4 0h2v2h-2v-2zm-7 3.5v5c0 .8.7 1.5 1.5 1.5h1.5v-8h-1.5c-.8 0-1.5.7-1.5 1.5zm14.5-1.5h-1.5v8h1.5c.8 0 1.5-.7 1.5-1.5v-5c0-.8-.7-1.5-1.5-1.5z" fill="#34363D"/></svg>

<svg xmlns="http://www.w3.org/2000/svg" viewBox="0 0 16 16"><path d="M11 4c0-1.1-.9-2-2-2H7c-1.1 0-2 .9-2 2v2H4v8h8V6h-1V4zM7 4h2v2H7V4zM0 7.5v5c0 .8.7 1.5 1.5 1.5H3V6H1.5C.7 6 0 6.7 0 7.5zM14.5 6H13v8h1.5c.8 0 1.5-.7 1.5-1.5v-5c0-.8-.7-1.5-1.5-1.5z" fill="#34363D"/></svg>
